modules/micon/icons/wpform.svg

<svg xmlns="http://www.w3.org/2000/svg" viewBox="0 0 1536 1792"><path d="M515 911v128h-252v-128h252zm0-255v127h-252v-127h252zm758 511v128h-341v-128h341zm0-256v128h-672v-128h672zm0-255v127h-672v-127h672zm135 860v-1240q0-8-6-14t-14-6h-32l-378 256-210-171-210 171-378-256h-32q-8 0-14 6t-6 14v1240q0 8 6 14t14 6h1240q8 0 14-6t6-14zm-855-1110l185-150h-406zm430 0l221-150h-406zm553-130v1240q0 62-43 105t-105 43h-1240q-62 0-105-43t-43-105v-1240q0-62 43-105t105-43h1240q62 0 105 43t43 105z"/></svg>

<svg xmlns="http://www.w3.org/2000/svg" viewBox="0 0 1536 1792"><path d="M515 911v128H263V911h252zm0-255v127H263V656h252zm758 511v128H932v-128h341zm0-256v128H601V911h672zm0-255v127H601V656h672zm135 860V276q0-8-6-14t-14-6h-32L978 512 768 341 558 512 180 256h-32q-8 0-14 6t-6 14v1240q0 8 6 14t14 6h1240q8 0 14-6t6-14zM553 406l185-150H332zm430 0l221-150H798zm553-130v1240q0 62-43 105t-105 43H148q-62 0-105-43T0 1516V276q0-62 43-105t105-43h1240q62 0 105 43t43 105z"/></svg>
